X: 1
T: Jack In The Green
M: 9/8
L: 1/8
R: slip jig
K: Dmaj
|:d2d dcd Bcd | e2e efd cBA |d2d dcd B3 | ABc dAG FED:|
|:C2E D2F E2A | AGA EFG FED | C2E D2F E2A | ABc dAG FED:|
